X: 1
T:Gan Ainm
S:Denis Brooks
E:11.5
R:polka
I:speed 450
M:2/4
K:G
c|B2G2 G3A|B2G2 G2B2|A2D2 F2G2|A2B2 cBA2|B2G2 G3A|B2G2 G2B2|A2D2 F2G2|A2G2 G3:|
A|B2d2 c2e2|d2g2 B2AB|d2c2 A2F2|e2d2 B2GA|B2d2 c2e2|d2g2 B2AB|d2c2 A2F2|G4 G3:|
